status/symbolic/dialog-warning-symbolic.svg

<?xml version="1.0" encoding="UTF-8" standalone="no"?>
<svg
   height="16"
   width="16"
   version="1.1"
   id="svg6"
   sodipodi:docname="dialog-warning-symbolic.svg"
   inkscape:version="1.2.2 (b0a8486541, 2022-12-01)"
   xmlns:inkscape="http://www.inkscape.org/namespaces/inkscape"
   xmlns:sodipodi="http://sodipodi.sourceforge.net/DTD/sodipodi-0.dtd"
   xmlns="http://www.w3.org/2000/svg"
   xmlns:svg="http://www.w3.org/2000/svg"
   xmlns:rdf="http://www.w3.org/1999/02/22-rdf-syntax-ns#"
   xmlns:cc="http://creativecommons.org/ns#"
   xmlns:dc="http://purl.org/dc/elements/1.1/">
  <sodipodi:namedview
     id="namedview17090"
     pagecolor="#ffffff"
     bordercolor="#000000"
     borderopacity="0.25"
     inkscape:showpageshadow="2"
     inkscape:pageopacity="0.0"
     inkscape:pagecheckerboard="0"
     inkscape:deskcolor="#d1d1d1"
     showgrid="false"
     inkscape:zoom="64"
     inkscape:cx="7.1796875"
     inkscape:cy="5.53125"
     inkscape:window-width="1390"
     inkscape:window-height="1053"
     inkscape:window-x="48"
     inkscape:window-y="610"
     inkscape:window-maximized="0"
     inkscape:current-layer="svg6" />
  <metadata
     id="metadata12">
    <rdf:RDF>
      <cc:Work
         rdf:about="">
        <dc:format>image/svg+xml</dc:format>
        <dc:type
           rdf:resource="http://purl.org/dc/dcmitype/StillImage" />
      </cc:Work>
    </rdf:RDF>
  </metadata>
  <defs
     id="defs10" />
  <path
     style="color:#000000;font-weight:400;line-height:normal;font-family:sans-serif;font-variant-ligatures:normal;font-variant-position:normal;font-variant-caps:normal;font-variant-numeric:normal;font-variant-alternates:normal;font-feature-settings:normal;text-indent:0;text-align:start;text-decoration:none;text-decoration-line:none;text-decoration-style:solid;text-decoration-color:#000000;text-transform:none;text-orientation:mixed;white-space:normal;shape-padding:0;overflow:visible;isolation:auto;mix-blend-mode:normal;fill:#f9c440"
     d="M 7.9609374,4.21875e-4 C 7.4254494,0.01510111 6.9384949,0.31442176 6.6835937,0.78557813 L 0.18359378,12.783602 c -0.542,1 0.180406,2.216796 1.31640602,2.216796 H 14.5 c 1.136,0 1.858406,-1.215797 1.316406,-2.216796 L 9.3164063,0.78557813 C 9.0486628,0.28932057 8.5246248,-0.01422878 7.9609374,4.21875e-4 Z M 7,4 h 2 v 4 l -0.5,2 h -1 L 7,8 Z m 1,7 c 1.3333328,0 1.3333328,2 0,2 -1.3333328,0 -1.3333328,-2 0,-2 z"
     class="warning"
     id="path829"
     sodipodi:nodetypes="cccssccccccccccsss" />
</svg>

<?xml version="1.0" encoding="UTF-8" standalone="no"?>
<svg
   xmlns:dc="http://purl.org/dc/elements/1.1/"
   xmlns:cc="http://creativecommons.org/ns#"
   xmlns:rdf="http://www.w3.org/1999/02/22-rdf-syntax-ns#"
   xmlns:svg="http://www.w3.org/2000/svg"
   xmlns="http://www.w3.org/2000/svg"
   height="16.002"
   width="16.002"
   version="1.1"
   id="svg6">
  <metadata
     id="metadata12">
    <rdf:RDF>
      <cc:Work
         rdf:about="">
        <dc:format>image/svg+xml</dc:format>
        <dc:type
           rdf:resource="http://purl.org/dc/dcmitype/StillImage" />
        <dc:title />
      </cc:Work>
    </rdf:RDF>
  </metadata>
  <defs
     id="defs10" />
  <path
     style="color:#000000;font-weight:400;line-height:normal;font-family:sans-serif;font-variant-ligatures:normal;font-variant-position:normal;font-variant-caps:normal;font-variant-numeric:normal;font-variant-alternates:normal;font-feature-settings:normal;text-indent:0;text-align:start;text-decoration:none;text-decoration-line:none;text-decoration-style:solid;text-decoration-color:#000000;text-transform:none;text-orientation:mixed;white-space:normal;shape-padding:0;overflow:visible;isolation:auto;mix-blend-mode:normal;fill:#f9c440"
     d="M 7.9628906 0 A 1.499 1.499 0 0 0 6.6855469 0.78515625 L 0.18359375 12.785156 C -0.35840625 13.785156 0.364 15.001953 1.5 15.001953 L 14.5 15.001953 C 15.636 15.001953 16.358406 13.786156 15.816406 12.785156 L 9.3183594 0.78515625 A 1.496 1.496 0 0 0 7.9628906 0 z M 7.0019531 4.0019531 L 9.0019531 4.0019531 L 9.0019531 8.0019531 L 8.5019531 10.001953 L 7.5019531 10.001953 L 7.0019531 8.0019531 L 7.0019531 4.0019531 z M 8.0019531 11.001953 A 1 1 0 0 1 8.0019531 13.001953 A 1 1 0 0 1 8.0019531 11.001953 z "
     class="warning"
     id="path829" />
</svg>
